bitcoin_safe/gui/icons/clock1.svg

<?xml version="1.0" encoding="UTF-8" standalone="no"?>
<svg
   width="16.089491"
   height="16.689035"
   id="screenshot-96a9d525-b8f4-8008-8006-02e12e3b5b23"
   fill="none"
   version="1.1"
   sodipodi:docname="clock1.svg"
   inkscape:version="1.2.2 (b0a8486541, 2022-12-01)"
   xmlns:inkscape="http://www.inkscape.org/namespaces/inkscape"
   xmlns:sodipodi="http://sodipodi.sourceforge.net/DTD/sodipodi-0.dtd"
   xmlns="http://www.w3.org/2000/svg"
   xmlns:svg="http://www.w3.org/2000/svg">
  <defs
     id="defs59">
    <defs
       id="defs7" />
    <clipPath
       clipPathUnits="userSpaceOnUse"
       id="clipPath429">
      <g
         id="g433">
        <rect
           rx="0"
           ry="0"
           width="30"
           height="30"
           id="rect431"
           x="0"
           y="0" />
      </g>
    </clipPath>
    <clipPath
       clipPathUnits="userSpaceOnUse"
       id="clipPath435">
      <g
         id="g439">
        <rect
           rx="0"
           ry="0"
           width="30"
           height="30"
           id="rect437"
           x="0"
           y="0" />
      </g>
    </clipPath>
  </defs>
  <sodipodi:namedview
     id="namedview57"
     pagecolor="#ffffff"
     bordercolor="#000000"
     borderopacity="0.25"
     inkscape:showpageshadow="2"
     inkscape:pageopacity="0.0"
     inkscape:pagecheckerboard="0"
     inkscape:deskcolor="#d1d1d1"
     showgrid="false"
     inkscape:zoom="28.433333"
     inkscape:cx="2.989449"
     inkscape:cy="8.915592"
     inkscape:window-width="1920"
     inkscape:window-height="1008"
     inkscape:window-x="0"
     inkscape:window-y="0"
     inkscape:window-maximized="1"
     inkscape:current-layer="screenshot-96a9d525-b8f4-8008-8006-02e12e3b5b23" />
  <style
     id="style2">/* cyrillic-ext */
@font-face {
  font-family: 'Nunito';
  font-style: normal;
  font-weight: 700;
  font-display: block;
  src: url(https://design.penpot.app/internal/gfonts/font/nunito/v26/XRXI3I6Li01BKofiOc5wtlZ2di8HDFwmdTk3j77e.woff2) format('woff2');
  unicode-range: U+0460-052F, U+1C80-1C8A, U+20B4, U+2DE0-2DFF, U+A640-A69F, U+FE2E-FE2F;
}
/* cyrillic */
@font-face {
  font-family: 'Nunito';
  font-style: normal;
  font-weight: 700;
  font-display: block;
  src: url(https://design.penpot.app/internal/gfonts/font/nunito/v26/XRXI3I6Li01BKofiOc5wtlZ2di8HDFwmdTA3j77e.woff2) format('woff2');
  unicode-range: U+0301, U+0400-045F, U+0490-0491, U+04B0-04B1, U+2116;
}
/* vietnamese */
@font-face {
  font-family: 'Nunito';
  font-style: normal;
  font-weight: 700;
  font-display: block;
  src: url(https://design.penpot.app/internal/gfonts/font/nunito/v26/XRXI3I6Li01BKofiOc5wtlZ2di8HDFwmdTs3j77e.woff2) format('woff2');
  unicode-range: U+0102-0103, U+0110-0111, U+0128-0129, U+0168-0169, U+01A0-01A1, U+01AF-01B0, U+0300-0301, U+0303-0304, U+0308-0309, U+0323, U+0329, U+1EA0-1EF9, U+20AB;
}
/* latin-ext */
@font-face {
  font-family: 'Nunito';
  font-style: normal;
  font-weight: 700;
  font-display: block;
  src: url(https://design.penpot.app/internal/gfonts/font/nunito/v26/XRXI3I6Li01BKofiOc5wtlZ2di8HDFwmdTo3j77e.woff2) format('woff2');
  unicode-range: U+0100-02BA, U+02BD-02C5, U+02C7-02CC, U+02CE-02D7, U+02DD-02FF, U+0304, U+0308, U+0329, U+1D00-1DBF, U+1E00-1E9F, U+1EF2-1EFF, U+2020, U+20A0-20AB, U+20AD-20C0, U+2113, U+2C60-2C7F, U+A720-A7FF;
}
/* latin */
@font-face {
  font-family: 'Nunito';
  font-style: normal;
  font-weight: 700;
  font-display: block;
  src: url(https://design.penpot.app/internal/gfonts/font/nunito/v26/XRXI3I6Li01BKofiOc5wtlZ2di8HDFwmdTQ3jw.woff2) format('woff2');
  unicode-range: U+0000-00FF, U+0131, U+0152-0153, U+02BB-02BC, U+02C6, U+02DA, U+02DC, U+0304, U+0308, U+0329, U+2000-206F, U+20AC, U+2122, U+2191, U+2193, U+2212, U+2215, U+FEFF, U+FFFD;
}</style>
  <g
     class="frame-children"
     id="g47"
     clip-path="url(#clipPath429)"
     transform="translate(-7.455255,-6.1189638)">
    <g
       id="shape-96a9d525-b8f4-8008-8006-02e12e3b5b24">
      <path
         d="m 8.31,17.114 c -0.473,-1.456 -0.473,-3.025 0,-4.481"
         style="fill:none"
         class="fills"
         id="fills-96a9d525-b8f4-8008-8006-02e12e3b5b24" />
      <g
         fill="none"
         id="strokes-4d59de78-390c-808a-8006-12e0b91db212-96a9d525-b8f4-8008-8006-02e12e3b5b24"
         class="strokes">
        <path
           d="m 8.31,17.114 c -0.473,-1.456 -0.473,-3.025 0,-4.481"
           style="fill:none;stroke:#fe1d01;stroke-width:1;stroke-linecap:round;stroke-opacity:1"
           class="stroke-shape"
           id="path13" />
      </g>
    </g>
    <g
       id="shape-96a9d525-b8f4-8008-8006-02e12e3b5b25">
      <path
         d="m 22.69,12.633 c 0.473,1.456 0.473,3.025 0,4.481"
         style="fill:none"
         class="fills"
         id="fills-96a9d525-b8f4-8008-8006-02e12e3b5b25" />
      <g
         fill="none"
         id="strokes-4d59de78-390c-808a-8006-12e0b91dddc7-96a9d525-b8f4-8008-8006-02e12e3b5b25"
         class="strokes">
        <path
           d="m 22.69,12.633 c 0.473,1.456 0.473,3.025 0,4.481"
           style="fill:none;stroke:#fe1d01;stroke-width:1;stroke-linecap:round;stroke-opacity:1"
           class="stroke-shape"
           id="path18" />
      </g>
    </g>
    <g
       id="shape-96a9d525-b8f4-8008-8006-02e12e3b5b26">
      <path
         d="M 13.89,22.308 C 12.393,21.989 11.034,21.205 10.01,20.067"
         style="fill:none"
         class="fills"
         id="fills-96a9d525-b8f4-8008-8006-02e12e3b5b26" />
      <g
         fill="none"
         id="strokes-4d59de78-390c-808a-8006-12e0b91dddc8-96a9d525-b8f4-8008-8006-02e12e3b5b26"
         class="strokes">
        <path
           d="M 13.89,22.308 C 12.393,21.989 11.034,21.205 10.01,20.067"
           style="fill:none;stroke:#fe1d01;stroke-width:1;stroke-linecap:round;stroke-opacity:1"
           class="stroke-shape"
           id="path23" />
      </g>
    </g>
    <g
       id="shape-96a9d525-b8f4-8008-8006-02e12e3b5b27">
      <path
         d="M 10.01,9.854 C 11.034,8.716 12.393,7.931 13.89,7.613"
         style="fill:none"
         class="fills"
         id="fills-96a9d525-b8f4-8008-8006-02e12e3b5b27" />
      <g
         fill="none"
         id="strokes-4d59de78-390c-808a-8006-12e0b91e3754-96a9d525-b8f4-8008-8006-02e12e3b5b27"
         class="strokes">
        <path
           d="M 10.01,9.854 C 11.034,8.716 12.393,7.931 13.89,7.613"
           style="fill:none;stroke:#fe1d01;stroke-width:1;stroke-linecap:round;stroke-opacity:1"
           class="stroke-shape"
           id="path28" />
      </g>
    </g>
    <g
       id="shape-96a9d525-b8f4-8008-8006-02e12e3b5b28">
      <path
         d="m 21.081,20.067 c -1.025,1.138 -2.383,1.922 -3.881,2.241"
         style="fill:none"
         class="fills"
         id="fills-96a9d525-b8f4-8008-8006-02e12e3b5b28" />
      <g
         fill="none"
         id="strokes-4d59de78-390c-808a-8006-12e0b91e63f4-96a9d525-b8f4-8008-8006-02e12e3b5b28"
         class="strokes">
        <path
           d="m 21.081,20.067 c -1.025,1.138 -2.383,1.922 -3.881,2.241"
           style="fill:none;stroke:#fe1d01;stroke-width:1;stroke-linecap:round;stroke-opacity:1"
           class="stroke-shape"
           id="path33" />
      </g>
    </g>
    <g
       id="shape-96a9d525-b8f4-8008-8006-02e12e3b5b29">
      <g
         id="shape-96a9d525-b8f4-8008-8006-02e12e3b5b2a">
        <path
           d="m 18.571,9.795 c 0.509,0.294 0.958,0.651 1.344,1.055 0.169,0.177 0.436,0.227 0.647,0.105 L 22.333,9.932 C 22.591,9.783 22.663,9.442 22.472,9.213 21.778,8.384 20.937,7.684 19.987,7.149 19.094,6.646 18.125,6.302 17.124,6.126 16.831,6.075 16.571,6.308 16.571,6.606 v 2.045 c 0,0.244 0.177,0.45 0.414,0.507 0.543,0.132 1.077,0.343 1.586,0.637 z m 0,0 z"
           fill-rule="evenodd"
           clip-rule="evenodd"
           style="fill:#fe1d01"
           class="fills"
           id="fills-96a9d525-b8f4-8008-8006-02e12e3b5b2a" />
      </g>
    </g>
    <g
       class="text-container"
       id="shape-1e07ac11-2308-80d6-8006-02e35f20729f">
      <defs
         id="defs43">
        <pattern
           patternUnits="userSpaceOnUse"
           x="8.5"
           y="7"
           width="4.805"
           height="11"
           id="fill-0-render-212-0">
          <rect
             width="4.805"
             height="11"
             style="fill: rgb(254, 29, 1); fill-opacity: 1;"
             id="rect40" />
        </pattern>
      </defs>
      <text
         x="13.094"
         y="20.202999"
         dominant-baseline="ideographic"
         textLength="4.8049998"
         lengthAdjust="spacingAndGlyphs"
         style="font-style:normal;font-weight:700;font-size:8px;font-family:Nunito;text-decoration:none;text-decoration-line:none;text-decoration-style:solid;text-decoration-color:#000000;letter-spacing:normal;text-transform:none;direction:ltr;white-space:pre;fill:#fe1d01;fill-opacity:1"
         class="fills"
         id="fills-1e07ac11-2308-80d6-8006-02e35f20729f">1</text>
    </g>
  </g>
</svg>

<svg width="30" xmlns="http://www.w3.org/2000/svg" height="30" id="screenshot-96a9d525-b8f4-8008-8006-02e12e3b5b23" fill="none" version="1.1"><style>/* cyrillic-ext */
@font-face {
  font-family: &apos;Nunito&apos;;
  font-style: normal;
  font-weight: 700;
  font-display: block;
  src: url(https://design.penpot.app/internal/gfonts/font/nunito/v26/XRXI3I6Li01BKofiOc5wtlZ2di8HDFwmdTk3j77e.woff2) format(&apos;woff2&apos;);
  unicode-range: U+0460-052F, U+1C80-1C8A, U+20B4, U+2DE0-2DFF, U+A640-A69F, U+FE2E-FE2F;
}
/* cyrillic */
@font-face {
  font-family: &apos;Nunito&apos;;
  font-style: normal;
  font-weight: 700;
  font-display: block;
  src: url(https://design.penpot.app/internal/gfonts/font/nunito/v26/XRXI3I6Li01BKofiOc5wtlZ2di8HDFwmdTA3j77e.woff2) format(&apos;woff2&apos;);
  unicode-range: U+0301, U+0400-045F, U+0490-0491, U+04B0-04B1, U+2116;
}
/* vietnamese */
@font-face {
  font-family: &apos;Nunito&apos;;
  font-style: normal;
  font-weight: 700;
  font-display: block;
  src: url(https://design.penpot.app/internal/gfonts/font/nunito/v26/XRXI3I6Li01BKofiOc5wtlZ2di8HDFwmdTs3j77e.woff2) format(&apos;woff2&apos;);
  unicode-range: U+0102-0103, U+0110-0111, U+0128-0129, U+0168-0169, U+01A0-01A1, U+01AF-01B0, U+0300-0301, U+0303-0304, U+0308-0309, U+0323, U+0329, U+1EA0-1EF9, U+20AB;
}
/* latin-ext */
@font-face {
  font-family: &apos;Nunito&apos;;
  font-style: normal;
  font-weight: 700;
  font-display: block;
  src: url(https://design.penpot.app/internal/gfonts/font/nunito/v26/XRXI3I6Li01BKofiOc5wtlZ2di8HDFwmdTo3j77e.woff2) format(&apos;woff2&apos;);
  unicode-range: U+0100-02BA, U+02BD-02C5, U+02C7-02CC, U+02CE-02D7, U+02DD-02FF, U+0304, U+0308, U+0329, U+1D00-1DBF, U+1E00-1E9F, U+1EF2-1EFF, U+2020, U+20A0-20AB, U+20AD-20C0, U+2113, U+2C60-2C7F, U+A720-A7FF;
}
/* latin */
@font-face {
  font-family: &apos;Nunito&apos;;
  font-style: normal;
  font-weight: 700;
  font-display: block;
  src: url(https://design.penpot.app/internal/gfonts/font/nunito/v26/XRXI3I6Li01BKofiOc5wtlZ2di8HDFwmdTQ3jw.woff2) format(&apos;woff2&apos;);
  unicode-range: U+0000-00FF, U+0131, U+0152-0153, U+02BB-02BC, U+02C6, U+02DA, U+02DC, U+0304, U+0308, U+0329, U+2000-206F, U+20AC, U+2122, U+2191, U+2193, U+2212, U+2215, U+FEFF, U+FFFD;
}</style><g id="shape-96a9d525-b8f4-8008-8006-02e12e3b5b23"><defs><clipPath id="frame-clip-96a9d525-b8f4-8008-8006-02e12e3b5b23-render-204" class="frame-clip frame-clip-def"><rect rx="0" ry="0" width="30" height="30" transform="matrix(1.000000, 0.000000, 0.000000, 1.000000, 0.000000, 0.000000)"/></clipPath></defs><g class="frame-container-wrapper"><g class="frame-container-blur"><g clip-path="url(#frame-clip-96a9d525-b8f4-8008-8006-02e12e3b5b23-render-204)" class="frame-container-shadows"><g class="fills" id="fills-96a9d525-b8f4-8008-8006-02e12e3b5b23"><rect width="30" height="30" class="frame-background" transform="matrix(1.000000, 0.000000, 0.000000, 1.000000, 0.000000, 0.000000)" style="fill: rgb(255, 255, 255); fill-opacity: 1;" ry="0" rx="0"/></g><g class="frame-children"><g id="shape-96a9d525-b8f4-8008-8006-02e12e3b5b24"><path d="M8.310,17.114C7.837,15.658,7.837,14.089,8.310,12.633" style="fill: none;" class="fills" id="fills-96a9d525-b8f4-8008-8006-02e12e3b5b24"/><g fill="none" id="strokes-4d59de78-390c-808a-8006-12e0b91db212-96a9d525-b8f4-8008-8006-02e12e3b5b24" class="strokes"><path d="M8.310,17.114C7.837,15.658,7.837,14.089,8.310,12.633" style="fill: none; stroke-width: 1; stroke: rgb(254, 29, 1); stroke-opacity: 1; stroke-linecap: round;" class="stroke-shape"/></g></g><g id="shape-96a9d525-b8f4-8008-8006-02e12e3b5b25"><path d="M22.690,12.633C23.163,14.089,23.163,15.658,22.690,17.114" style="fill: none;" class="fills" id="fills-96a9d525-b8f4-8008-8006-02e12e3b5b25"/><g fill="none" id="strokes-4d59de78-390c-808a-8006-12e0b91dddc7-96a9d525-b8f4-8008-8006-02e12e3b5b25" class="strokes"><path d="M22.690,12.633C23.163,14.089,23.163,15.658,22.690,17.114" style="fill: none; stroke-width: 1; stroke: rgb(254, 29, 1); stroke-opacity: 1; stroke-linecap: round;" class="stroke-shape"/></g></g><g id="shape-96a9d525-b8f4-8008-8006-02e12e3b5b26"><path d="M13.890,22.308C12.393,21.989,11.034,21.205,10.010,20.067" style="fill: none;" class="fills" id="fills-96a9d525-b8f4-8008-8006-02e12e3b5b26"/><g fill="none" id="strokes-4d59de78-390c-808a-8006-12e0b91dddc8-96a9d525-b8f4-8008-8006-02e12e3b5b26" class="strokes"><path d="M13.890,22.308C12.393,21.989,11.034,21.205,10.010,20.067" style="fill: none; stroke-width: 1; stroke: rgb(254, 29, 1); stroke-opacity: 1; stroke-linecap: round;" class="stroke-shape"/></g></g><g id="shape-96a9d525-b8f4-8008-8006-02e12e3b5b27"><path d="M10.010,9.854C11.034,8.716,12.393,7.931,13.890,7.613" style="fill: none;" class="fills" id="fills-96a9d525-b8f4-8008-8006-02e12e3b5b27"/><g fill="none" id="strokes-4d59de78-390c-808a-8006-12e0b91e3754-96a9d525-b8f4-8008-8006-02e12e3b5b27" class="strokes"><path d="M10.010,9.854C11.034,8.716,12.393,7.931,13.890,7.613" style="fill: none; stroke-width: 1; stroke: rgb(254, 29, 1); stroke-opacity: 1; stroke-linecap: round;" class="stroke-shape"/></g></g><g id="shape-96a9d525-b8f4-8008-8006-02e12e3b5b28"><path d="M21.081,20.067C20.056,21.205,18.698,21.989,17.200,22.308" style="fill: none;" class="fills" id="fills-96a9d525-b8f4-8008-8006-02e12e3b5b28"/><g fill="none" id="strokes-4d59de78-390c-808a-8006-12e0b91e63f4-96a9d525-b8f4-8008-8006-02e12e3b5b28" class="strokes"><path d="M21.081,20.067C20.056,21.205,18.698,21.989,17.200,22.308" style="fill: none; stroke-width: 1; stroke: rgb(254, 29, 1); stroke-opacity: 1; stroke-linecap: round;" class="stroke-shape"/></g></g><g id="shape-96a9d525-b8f4-8008-8006-02e12e3b5b29"><g id="shape-96a9d525-b8f4-8008-8006-02e12e3b5b2a"><path d="M18.571,9.795C19.080,10.089,19.529,10.446,19.915,10.850C20.084,11.027,20.351,11.077,20.562,10.955L22.333,9.932C22.591,9.783,22.663,9.442,22.472,9.213C21.778,8.384,20.937,7.684,19.987,7.149C19.094,6.646,18.125,6.302,17.124,6.126C16.831,6.075,16.571,6.308,16.571,6.606L16.571,8.651C16.571,8.895,16.748,9.101,16.985,9.158C17.528,9.290,18.062,9.501,18.571,9.795ZL18.571,9.795Z" fill-rule="evenodd" clip-rule="evenodd" style="fill: rgb(254, 29, 1);" class="fills" id="fills-96a9d525-b8f4-8008-8006-02e12e3b5b2a"/></g></g><g transform="matrix(1.000000, 0.000000, 0.000000, 1.000000, 0.000000, 0.000000)" class="text-container" id="shape-1e07ac11-2308-80d6-8006-02e35f20729f"><defs><pattern patternUnits="userSpaceOnUse" x="8.5" y="7" width="4.805" height="11" id="fill-0-render-212-0"><rect width="4.805" height="11" style="fill: rgb(254, 29, 1); fill-opacity: 1;"/></pattern></defs><text x="13.094" y="20.203" dominant-baseline="ideographic" textLength="4.805" lengthAdjust="spacingAndGlyphs" style="text-transform: none; font-family: Nunito; letter-spacing: normal; font-style: normal; font-weight: 700; white-space: pre; font-size: 8px; text-decoration: none solid rgb(254, 29, 1); direction: ltr; fill: rgb(254, 29, 1); fill-opacity: 1;" class="fills" id="fills-1e07ac11-2308-80d6-8006-02e35f20729f">1</text></g></g></g></g></g></g></svg>
